X:1
T:Dixit Dominus - Anon
T:#
%%score [ 1 { 2 | 3 } 4 ]
L:1/8
Q:1/4=130
M:4/4
K:C
V:1 treble nm="Alto" snm="A"
V:2 treble-8 nm="Tenor I" snm="T"
V:3 treble 
V:4 treble nm="Bass" snm="B"
V:1
 z30 | z20 ||[Q:1/4=200][Q:1/4=200][Q:1/4=200] ^F12 F4 | G8 E8 | F6 F2 F4 G4 | A8 G4 G4 | %6
w: ||Do- nec|po- nam|i- ni- mi- cos|tu- os, sca-|
 G4 G4 G8 |[M:4/2] F4 D4 E8 | E4 F4 F4 F4 | E8 D4 D4- | D4 ^C4 D16 || %11
w: bel- lum pe-|dum tu- o-|rum, sca- bel- lum|pe- dum tu\-|* o- rum.|
[Q:1/4=130][Q:1/4=130][Q:1/4=130] z26 | z22 ||[M:4/2][Q:1/4=200][Q:1/4=200][Q:1/4=200] F8 F4 F4 | %14
w: ||Te- cum prin-|
 E6 E2 E4 A4 | G8 G4 A4 | F4 F4 G8 | A8 z8 | z16 | z8 z4 E4 ||[M:3/2] ^F6 F2 G4 | G6 G2 A4 | %22
w: ci- pi- um in|di- e vir-|tu- tis tu-|ae,||ex|u- te- ro|an- te lu-|
 G6 G2 A4 | F6 G2 E4 || ^F16 ||[Q:1/4=130][Q:1/4=130][Q:1/4=130] z26 | z22 || %27
w: ci- fe- rum|ge- nu- i|te.|||
[Q:1/4=200][Q:1/4=200][Q:1/4=200] z16 | z16 | z4 E4 (F2 G2 A2 B2 | c8) B8 | z4 A4 A8 | %32
w: ||Con- fre\- * * *|* git,|con- fre-|
[M:4/2] G4 G4 ^F8 ||[M:3/2] G12- | G4 z8 | z12 | A6 A2 G2 F2 || E8 D4 ^F4 | G8 G8 | G8 A8 | %40
w: git in di-|e|||i- rae su- ae|re- ges, con-|fre- git|in di-|
 G4 A6 A2 G2 F2 | E8 ^F16 ||[Q:1/4=130][Q:1/4=130][Q:1/4=130] z28 | z22 || %44
w: e i- rae su- ae|re- ges.|||
[Q:1/4=200][Q:1/4=200][Q:1/4=200] D4 E4 F8 | (E6 F2 G4) G4 | F4 G4 A8 | G12 E4 | F4 D4 E8 || %49
w: De tor- ren-|te * * in|vi- a bi-|bet, in|vi- a bi-|
[M:3/2] E8 A4 |[M:3/2] G6 G2 G4 | A6 A2 F4 | G4 E8 | D8 F4 | F6 E2 ^F4 | G6 G2 G4 | F4 E8 | ^F16 || %58
w: bet: pro-|pte- re- a|ex- al- ta-|bit ca-|put, pro-|pte- re- a|ex- al- ta-|bit ca-|put.|
[Q:1/4=130][Q:1/4=130][Q:1/4=130] z20 | z16 ||[Q:1/4=200][Q:1/4=200][Q:1/4=200] A12 A4 || %61
w: ||Si- cut|
[M:3/2] B8 B4 | c8 c4 | B6 B2 B4 | A4 ^G4 A4- || A4 ^G4 A8 ||[M:3/2] A8 G4 | F6 F2 E4 | A8 G4 | %69
w: e- rat|in prin-|ci- pi- o,|et nunc, et|* sem- per,|et in|sae- cu- la,|et in|
[M:3/2] F6 F2 E4 | G6 A2 F4 | F4 G8 | A8 z4 | A8 G4 |[Q:1/4=197] G6[Q:1/4=193] G2[Q:1/4=191] G4 | %75
w: sae- cu- la|sae- cu- lo-|rum, A-|men,|et in|sae- cu- la|
[Q:1/4=186] A6[Q:1/4=183] G2[Q:1/4=181] F4 |[Q:1/4=177] G4[Q:1/4=173] E8 |[Q:1/4=170] ^F16 |] %78
w: sae- cu- lo-|rum, A-|men.|
V:2
"^Dixit Dominus""^Anon.\n(C16th?)""^Psalm 110 (Vulgate 109)" x30 | x20 || d12 d4 | d8 ^c8 | %4
w: ||Do- nec|po- nam|
 d6 d2 d4 e4 | f8 e4 e4 | e4 e4 d8 |[M:4/2][K:treble-8] d4 A4 B8 | c4 c4 c4 c4 | c8 _B4 G4 | %10
w: i- ni- mi- cos|tu- os, sca-|bel- lum pe-|dum tu- o-|rum, sca- bel- lum|pe- dum tu-|
 A8 A16 || x26 | x22 ||[M:4/2][K:treble-8] d8 d4 d4 | c6 c2 c4 f4 | e8 e4 c4 | d4 f8 e4 | %17
w: o- rum.|||Te- cum prin-|ci- pi- um in|di- e vir-|tu- tis tu-|
 f4 c8 c4 | c6 c2 d4 d4 | B8 ^c4 c4 ||[M:3/2] d6 d2 d4 | e6 e2 f4 | e6 e2 f4 | d6 d2 ^c4 || d16 || %25
w: ae, in splen-|do- ri- bus san-|cto- rum:l ex|u- te- ro|an- te lu-|ci- fe- rum|ge- nu- i|te.|
 x26 | x22 || z8 A6 B2 | c4 A4 B4 d4- | d4 ^c4 d8 | z4 e4 (d2 c2 d2 e2 | f8) e4 e4 | %32
w: ||Do- mi-|nus a dex- tris|* tu- is:|con- fre\- * * *|* git in|
[M:4/2][K:treble-8] e8 A4 d4 ||[M:3/2] d8 e4 | e6 e2 d2 c2 | B8 c4 | f6 f2 e2 d2 || %37
w: di- e, in|di- e|i- rae su- ae|re- ges,|i- rae su- ae|
 (d4 ^c4) d4 d4 | e8 d4 d4 | e4 c4 A6 B2 | c4 c4 (f4 e2) d2 | (d4 ^c4) d16 || x28 | x22 || %44
w: re\- * ges, con-|fre- git in|di- e i- rae|su- ae, su\- * ae|re\- * ges.|||
 z8 A4 B4 | c8 B4 c4 | d8 c8 | e8 d4 c4 | A4 A4 B8 ||[M:3/2] ^c8 f4 |[M:3/2][K:treble-8] e6 e2 e4 | %51
w: De tor-|ren- te in|vi- a|bi- bet, in|vi- a bi-|bet: pro-|pte- re- a|
 f6 f2 d4 | d4 ^c8 | d8 d4 | d6 e2 d4 | d6 d2 e4 | d4 ^c8 | d16 || x20 | x16 || d12 d4 || %61
w: ex- al- ta-|bit ca-|put, pro-|pte- re- a|ex- al- ta-|bit ca-|put.|||Si- cut|
[M:3/2] d8 d4 | e8 e4 | e6 e2 e4 | c4 e4 e4 || e8 e8 ||[M:3/2] f8 e4 | d6 d2 c4 | e8 e4 | %69
w: e- rat|in prin-|ci- pi- o,|et nunc, et|sem- per,|et in|sae- cu- la,|et in|
[M:3/2][K:treble-8] c6 c2 c4 | e6 f2 d4 | f4 e8 | f8 z4 | f8 e4 | d6 d2 e4 | f6 e2 d4 | d4 ^c8 | %77
w: sae- cu- la|sae- cu- lo-|rum, A-|men,|et in|sae- cu- la|sae- cu- lo-|rum, A-|
 d16 |] %78
w: men.|
V:3
[I:staff -1] F,2 G2 A2 A2 A2 G2 A2 _B2 A2 A2 A2 G2 G2 A4 | A2 A2 A2 G2 F2 G2 A2 G2 F4 || %2
w: Di- xit * Do- mi- nus Do\- * mi- no me\- * o: *|Se- de a dex- tris me\- * is. *|
w: ||
[I:staff +1] A12 A,4 | _B,8 A,8 | A,6 A,2 A,4 C4 | C8 C4 C4 | C4 C4 B,8 | %7
w: Do- nec|po- nam|i- ni- mi- cos|tu- os, sca-|bel- lum pe-|
w: |||||
[M:4/2][K:treble-8] A4 A8 ^G4 | A4 A4 A4 A4 | G8 G4 D4 | E8 D16 || %11
w: dum tu- o-|rum, sca- bel- lum|pe- dum tu-|o- rum.|
w: ||||
[I:staff -1] F2 G2 A2 G2 A2 _B2 A8 G2 A4 | A8 G2 F2 G2 A2 G2 F4 || %13
w: Vir- gam vir- tu- tis tu- ae~emittet~Dominus~ex Si- on:|dominare~in~medio~ini- mi- co- rum tu- o- rum.|
w: ||
[M:4/2][I:staff +1][K:treble-8] D8 D4 D4 | A6 A2 A4 F4 | c8 c4 A4 | _B4 d4 c8 | F4 A8 G4 | %18
w: Te- cum prin-|ci- pi- um in|di- e vir-|tu- tis tu-|ae, in splen-|
w: |||||
 A6 A2 B4 A4- | A4 ^G4 A4 A4 ||[M:3/2] A6 A2 B4 | c6 c2 c4 | c6 c2 c4 | _B6 B2 A4 || A16 || %25
w: do- ri- bus san\-|* cto- rum:l ex|u- te- ro|an- te lu-|ci- fe- rum|ge- nu- i|te.|
w: |||||||
[I:staff -1] F2 G2 A2 G2 A2 _B2 A8 G2 A4 | A8 G2 F2 G2 A2 G2 F4 ||[I:staff +1] z16 | z16 | %29
w: Ju- ra- vit Do- mi- nus et~non~paenitebit e- um:|tu~es~sacerdos~in * * * * * *|||
w: |æternum~secundum~or- di- nem Mel- chi- se- dech.|||
 z8 z4 F4 | (E2 F2 G2 A2 B2 A2 B2 c2 | d8) c4 c4 |[M:4/2][K:treble-8] B8 d4 A4 ||[M:3/2] B8 c4 | %34
w: Con-|fre\- * * * * * * *|* git in|di- e, in|di- e|
w: |||||
 c6 c2 B2 A2 | (A4 ^G4) A4 | F6 F2 G2 G2 || A8 D4 A4 | c8 B8- | B4 c4 (c6 d2) | e4 c6 c2 c2 A2 | %41
w: i- rae su- ae|re\- * ges,|i- rae su- ae|re- ges, con-|fre- git|* in di\- *|e i- rae su- ae|
w: |||||||
 A8 A16 ||[I:staff -1] F2 G2 A2 G2 A2 _B2 A8 G2 G2 A4 | A8 G2 F2 G2 A2 G2 F4 ||[I:staff +1] z16 | %45
w: re- ges.|~Ju- di- ca- bit in na- tionibus~implebit ru- i- nas:|conquassabit~capita in ter- ra mul- to- rum.||
w: ||||
 z16 | D4 E4 F8 | E4 F4 G8 | F4 (A8 ^G4) ||[M:3/2] A8 F4 |[M:3/2][K:treble-8] c6 c2 c4 | %51
w: |De tor- ren-|te in vi-|a bi\- *|bet: pro-|pte- re- a|
w: ||||||
 F6 F2 _B4 | G4 A8 | D8 A4 | A6 A2 A4 | B6 B2 c4 | A4 A8 | A16 || %58
w: ex- al- ta-|bit ca-|put, pro-|pte- re- a|ex- al- ta-|bit ca-|put.|
w: |||||||
[I:staff -1] F2 G2 A2 G2 A2 _B2 A2 G2 A4 | A2 G2 F2 G2 A2 G2 F4 ||[I:staff +1] ^F12 F4 || %61
w: Glo- ri- a Pa- tri, et Fi- li- o|et Spi- ri- tu- i San- cto:|Si- cut|
w: |||
[M:3/2] G8 G4 | G8 A4 | ^G6 G2 G4 | A4 B4 c4 || B8 A8 ||[M:3/2] c8 c4 | A6 A2 A4 | c8 B4 | %69
w: e- rat|in prin-|ci- pi- o,|et nunc, et|sem- per,|et in|sae- cu- la,|et in|
w: ||||||||
[M:3/2][K:treble-8] A6 A2 G4 | c6 A2 _B4 | d4 c8 | F8 z4 | c8 c4 | B6 B2 c4 | c6 c2 A4 | _B4 A8 | %77
w: sae- cu- la|sae- cu- lo-|rum, A-|men,|et in|sae- cu- la|sae- cu- lo-|rum, A-|
w: ||||||||
 A16 |] %78
w: men.|
w: |
V:4
 z30 | z20 || D,12 D,4 | G,,8 A,,8 | D,6 D,2 D,4 C,4 | F,8 C,4 C,4 | C,4 C,4 G,8 | %7
w: ||Do- nec|po- nam|i- ni- mi- cos|tu- os, sca-|bel- lum pe-|
[M:4/2] D,4 F,4 E,8 | A,,4 F,,4 F,,4 F,,4 | C,8 G,,4 _B,,4 | A,,8 D,16 || z26 | z22 ||[M:4/2] z16 | %14
w: dum tu- o-|rum, sca- bel- lum|pe- dum tu-|o- rum.||||
 z16 | z16 | z16 | z4 F,8 E,4 | F,6 F,2 D,4 D,4 | E,8 A,,4 A,,4 ||[M:3/2] D,6 D,2 G,,4 | %21
w: |||In splen-|do- ri- bus san-|cto- rum:l ex|u- te- ro|
 C,6 C,2 F,,4 | C,6 C,2 A,,4 | _B,,6 G,,2 A,,4 || D,16 || z26 | z22 || D,6 E,2 F,4 D,4 | %28
w: an- te lu-|ci- fe- rum|ge- nu- i|te.|||Do- mi- nus a|
 E,4 F,4 (G,6 F,2 | E,8) D,4 D,4 | (C,2 D,2 E,2 F,2 G,8) | D,4 D,4 (A,,2 B,,2 C,2 D,2) | %32
w: dex- tris tu\- *|* is: con-|fre\- * * * *|git, con- fre\- * * *|
[M:4/2] E,8 D,4 D,4 ||[M:3/2] G,8 C,4 | C,6 C,2 D,2 D,2 | E,8 A,,4 | z4 z8 || z8 z4 D,4 | %38
w: * git in|di- e|i- rae su- ae|re- ges,||con-|
 (C,2 D,2 E,2 F,2 G,8) | E,4 E,4 F,8 | C,4 F,6 F,2 C,2 D,2 | A,,8 D,16 || z28 | z22 || z16 | z16 | %46
w: fre\- * * * *|git in di-|e i- rae su- ae|re- ges.|||||
 z8 A,,4 B,,4 | C,8 B,,4 C,4 | D,4 F,4 E,8 ||[M:3/2] A,,8 z4 |[M:3/2] z12 | z12 | z12 | z4 z4 D,4 | %54
w: De tor-|ren- te in|vi- a bi-|bet:||||pro-|
 D,6 ^C,2 D,4 | G,,6 G,,2 C,4 | D,4 A,,8 | D,16 || z20 | z16 || D,12 D,4 ||[M:3/2] G,,8 G,,4 | %62
w: pte- re- a|ex- al- ta-|bit ca-|put.|||Si- cut|e- rat|
 C,8 A,,4 | E,6 E,2 E,4 | F,4 E,4 A,,4 || E,8 A,,8 ||[M:3/2] F,8 C,4 | D,6 D,2 A,,4 | A,8 E,4 | %69
w: in prin-|ci- pi- o,|et nunc, et|sem- per,|et in|sae- cu- la,|et in|
[M:3/2] F,6 F,2 C,4 | z12 | z12 | z12 | F,8 C,4 | G,6 G,2 C,4 | F,6 C,2 D,4 | G,,4 A,,8 | D,16 |] %78
w: sae- cu- la,||||et in|sae- cu- la|sae- cu- lo-|rum, A-|men.|

